static/partners/moskva24.svg

<svg width="236" height="130" viewBox="0 0 236 130" fill="none" xmlns="http://www.w3.org/2000/svg">
<g clip-path="url(#clip0)">
<path d="M59.7544 78.0711H47.0849L47.372 76.4968C48.479 75.9682 49.6498 75.5872 50.8548 75.3637L53.9749 60.7011L55.0251 56.4195H54.7304L52.6 60.3361L41.2677 78.0711H39.1599L35.2011 60.5794L34.6194 56.3054H34.2643L33.3199 60.9521L30.298 75.0975C31.4643 75.347 32.5722 75.8195 33.5617 76.4892L33.2746 78.0634H23L23.2871 76.4892C24.4468 75.8312 25.6968 75.3494 26.9965 75.0595L31.2499 55.2103C30.1461 55.0567 29.0903 54.6565 28.16 54.0391L28.4848 52.4648H40.1798L42.9071 66.2908L43.2697 69.7207L45.0149 66.2148L54.0807 52.4648H65.1712L64.8842 54.0391C63.8663 54.6104 62.7606 55.0063 61.6129 55.2103L57.284 75.4017C58.2597 75.5772 59.19 75.9497 60.0188 76.4968L59.7544 78.0711Z" fill="#231F20"/>
<path d="M73.2247 59.3477C78.3091 59.3477 81.5351 61.8345 81.5351 66.8462C81.5351 73.1736 77.2515 78.5124 69.4473 78.5124C64.6953 78.5124 61.0538 76.056 61.0538 70.7248C61.0538 65.3937 64.937 59.3477 73.2247 59.3477ZM67.5208 72.2762C67.5208 74.9152 68.5709 76.1928 70.2783 76.1928C73.0358 76.1928 75.1134 71.4701 75.1134 65.8424C75.1134 62.9905 74.1615 61.7509 72.6354 61.7509C68.8278 61.728 67.5208 67.7969 67.5208 72.2534V72.2762Z" fill="#231F20"/>
<path d="M98.7904 73.6452C97.7883 75.1004 96.4611 76.2988 94.9155 77.1441C93.3699 77.9894 91.6489 78.458 89.8908 78.5124C85.5316 78.5124 82.6608 75.9875 82.6608 71.6678C82.6608 64.9754 87.1332 59.3477 94.537 59.3477C97.0452 59.3477 99.221 60.0473 99.8783 60.6633C100.06 61.7965 98.6846 64.4659 97.0452 65.2264L94.6126 61.7585C92.0666 61.7585 89.09 65.1579 89.09 70.6792C89.09 73.6375 90.5103 74.9913 92.7238 74.9913C94.7939 74.9913 96.6826 73.5995 97.7025 72.6489L98.7904 73.6452Z" fill="#231F20"/>
<path d="M110.312 69.8806L109.042 69.5156L107.411 78.0713H101.049L104.026 62.6786L101.382 62.093V60.6633C104.235 59.7996 107.197 59.3564 110.176 59.3476L111.007 59.7507L109.443 67.5383H110.788C112.464 66.2429 113.915 64.675 115.079 62.8992C115.172 61.8617 115.134 60.8166 114.966 59.7887C116.331 59.4419 117.736 59.2807 119.143 59.3096C120.42 59.2537 121.697 59.4157 122.921 59.7887C121.576 62.9676 116.998 66.1161 115.109 67.3938C116.558 70.2152 118.334 72.8547 120.397 75.2574H122.392L122.43 76.6871C120.671 77.7616 118.668 78.3662 116.612 78.4439C115.305 78.4439 114.286 77.9648 113.273 76.3905C112.063 74.3304 111.071 72.1486 110.312 69.8806Z" fill="#231F20"/>
<path d="M136.247 67.941C139.919 68.1235 141.12 70.0628 141.12 71.6295C141.12 74.778 137.267 78.474 130.324 78.474C125.429 78.474 122.339 75.6906 122.339 71.523C122.317 69.6636 122.721 67.8242 123.521 66.1477C124.32 64.4713 125.493 63.003 126.947 61.857C129.055 60.2523 131.526 59.3701 135.96 59.3701C139.156 59.3701 141.694 60.6097 141.694 63.1726C141.694 65.1956 139.405 67.1045 136.247 67.941ZM132.032 69.462C131.276 69.5761 129.931 69.6445 129.131 69.6826C128.927 70.5928 128.84 71.5259 128.874 72.4584C128.874 74.7399 129.675 76.1925 131.344 76.1925C132.855 76.1925 134.578 74.5118 134.578 72.2759C134.578 70.2225 133.777 69.6978 132.032 69.462ZM129.312 67.7813C132.946 67.9258 135.447 65.6975 135.447 63.3247C135.447 62.4806 135.122 61.7505 134.215 61.7505C132.326 61.7277 130.475 63.378 129.312 67.7585V67.7813Z" fill="#231F20"/>
<path d="M155.354 72.9912C153.971 75.8355 151.289 78.5125 147.58 78.5125C144.747 78.5125 142.79 76.5732 142.79 72.6185C142.79 64.8005 147.512 59.3857 154.734 59.3857C155.945 59.4252 157.135 59.7124 158.232 60.2299C160.104 59.6712 162.052 59.4145 164.004 59.4694L161.027 75.2651H163.793V76.6948C161.931 77.7666 159.839 78.3693 157.696 78.4516C155.732 78.4516 154.893 77.3869 154.893 76.4743C154.946 75.2858 155.144 74.1083 155.482 72.9684L155.354 72.9912ZM155.822 70.0252L157.175 62.2376C156.612 61.9029 155.97 61.7269 155.316 61.7281C151.395 61.7281 149.219 66.9908 149.219 72.0405C149.219 74.4133 149.725 75.2195 150.851 75.2195C152.664 75.2195 154.734 72.5881 155.822 70.0252Z" fill="#231F20"/>
<path fill-rule="evenodd" clip-rule="evenodd" d="M170.924 45.8867H212V84.8094C212 89.0074 209.326 91.9657 204.151 91.9657H199.315C197.871 91.9001 196.428 92.1365 195.078 92.66C193.728 93.1836 192.501 93.983 191.474 95.0078C190.444 93.9839 189.215 93.1852 187.864 92.6617C186.514 92.1383 185.07 91.9013 183.624 91.9657H178.796C173.614 91.9657 170.924 89.0074 170.924 84.8094V45.8867Z" fill="#A80230"/>
<path d="M180.625 66.063H179.537C179.126 64.5701 178.851 63.0428 178.713 61.4999C180.769 60.1008 183.198 59.3634 185.679 59.3857C190.212 59.3857 191.609 61.5836 191.609 63.751C191.609 68.4053 185.384 71.7287 181.32 73.919L179.507 74.8088V74.9153L181.373 74.7556H186.427L188.497 71.744H189.592C189.532 73.9895 189.3 76.2269 188.897 78.4364H174.989L175.419 76.269C179.643 73.379 187.22 68.5042 187.22 63.8195C187.22 62.5114 186.344 61.538 184.485 61.538C183.867 61.5324 183.25 61.604 182.649 61.7509L180.625 66.063Z" fill="white"/>
<path d="M205.201 78.4588H195.621L195.893 77.1203C196.815 76.8361 197.757 76.6226 198.711 76.4815L199.323 73.8577H190.718L191.013 72.2987L205.163 59.3701H207.021L204.385 71.8728H207.951L207.55 73.8273H203.962L203.38 76.4511C204.102 76.5835 204.806 76.7978 205.48 77.0899L205.201 78.4588ZM200.811 66.8687L201.567 65.0207H201.484L199.912 66.8687L194.994 71.2036L193.642 72.0934L195.795 71.9032H199.708L200.811 66.8687Z" fill="white"/>
<path d="M32.776 45.027H31.1366V37.6957H27.9182V36.2432H35.9792V37.6957H32.776V45.027Z" fill="#231F20"/>
<path d="M44.3652 40.563V40.9584H38.4044C38.4044 43.3312 39.2354 43.8179 41.0032 43.8179C41.8465 43.7896 42.6823 43.649 43.4888 43.3996L43.7834 44.7686C42.8194 45.0618 41.821 45.2255 40.8144 45.2553C38.2382 45.2553 36.6667 44.183 36.6667 40.5782C36.6667 37.0951 38.0946 36.0151 40.6633 36.0151C43.2319 36.0151 44.3652 36.8973 44.3652 40.563ZM38.427 39.6351H42.6804C42.5898 37.7643 42.1062 37.3536 40.701 37.3536C39.1145 37.3688 38.563 37.886 38.427 39.6351Z" fill="#231F20"/>
<path d="M48.6865 37.6957C48.5203 41.2321 47.7044 45.3008 45.2642 45.3008L45.0073 43.6049C46.1783 43.6049 47.0396 40.7454 47.1756 36.2432H52.8946V45.027H51.2703V37.6957H48.6865Z" fill="#231F20"/>
<path d="M62.3987 40.563V40.9585H56.4379C56.4379 43.3313 57.2689 43.818 59.0367 43.818C59.8819 43.796 60.7203 43.6604 61.5298 43.4149L61.8245 44.7838C60.863 45.0771 59.8672 45.2407 58.863 45.2706C56.2414 45.2706 54.7305 44.1982 54.7305 40.563C54.7305 37.0799 56.1583 36 58.727 36C61.2956 36 62.3987 36.8974 62.3987 40.563ZM56.4605 39.6352H60.7064C60.6233 37.7644 60.1398 37.3537 58.727 37.3537C57.148 37.3689 56.5965 37.8861 56.4605 39.6352Z" fill="#231F20"/>
<path d="M69.6514 45.027C67.944 41.734 66.7579 41.0572 65.6171 40.8366V45.027H64.0004V36.2432H65.6171V40.4716C66.3726 39.7795 67.7551 38.1901 69.3945 36.2432H71.3512C70.2711 37.6799 69.0678 39.0185 67.7551 40.2434C68.6768 40.6085 69.5079 41.08 71.593 45.027H69.6514Z" fill="#231F20"/>
<path d="M79.4498 44.5785C78.2416 45.0337 76.9624 45.2681 75.6724 45.2706C73.0357 45.2706 72.0612 44.6165 72.0612 42.3274C72.1065 39.8025 73.5419 39.4299 75.5364 39.4299C76.3189 39.4327 77.099 39.5194 77.8633 39.6885C77.8633 37.8556 77.4024 37.4526 75.4911 37.4526C74.613 37.4332 73.7384 37.5696 72.9073 37.8556L72.5598 36.4335C73.6 36.154 74.6713 36.0084 75.7479 36C78.3166 36 79.4498 36.7605 79.4498 39.4147V44.5785ZM77.8633 40.9053C77.1951 40.7651 76.5134 40.7013 75.831 40.7151C74.3201 40.7151 73.8517 40.8672 73.8517 42.2361C73.8517 43.6051 74.2445 43.9397 75.8159 43.9397C76.5119 43.9406 77.2034 43.8275 77.8633 43.6051V40.9053Z" fill="#231F20"/>
<path d="M83.1216 41.0267V45.027H81.4822V36.2432H83.1216V39.6198H87.2163V36.2432H88.8557V45.027H87.2163V41.0267H83.1216Z" fill="#231F20"/>
<path d="M97.914 44.5785C96.7059 45.0337 95.4267 45.2681 94.1366 45.2706C91.5 45.2706 90.5254 44.6165 90.5254 42.3274C90.5632 39.8025 92.0061 39.4299 94.0157 39.4299C94.7983 39.4332 95.5782 39.5199 96.3426 39.6885C96.3426 37.8556 95.8818 37.4526 93.9629 37.4526C93.0873 37.4337 92.2152 37.5702 91.3866 37.8556L90.9938 36.4335C92.0438 36.1515 93.1254 36.0058 94.2122 36C96.7733 36 97.914 36.7605 97.914 39.4147V44.5785ZM96.3275 40.9053C95.6594 40.7651 94.9776 40.7013 94.2953 40.7151C92.7843 40.7151 92.3159 40.8672 92.3159 42.2361C92.3159 43.6051 92.7087 43.9397 94.2802 43.9397C94.9761 43.94 95.6675 43.827 96.3275 43.6051V40.9053Z" fill="#231F20"/>
<path d="M102.681 37.6957C102.515 41.2321 101.707 45.3008 99.2588 45.3008L99.002 43.6049C100.173 43.6049 101.027 40.7454 101.185 36.2432H106.904V45.027H105.265V37.6957H102.681Z" fill="#231F20"/>
</g>
<defs>
<clipPath id="clip0">
<rect width="189" height="59" fill="white" transform="translate(23 36)"/>
</clipPath>
</defs>
</svg>

<svg width="236" height="130" fill="none" xmlns="http://www.w3.org/2000/svg"><g clip-path="url(#clip0)"><path d="M59.754 78.071h-12.67l.288-1.574a14.013 14.013 0 013.483-1.133l3.12-14.663 1.05-4.282h-.295l-2.13 3.917-11.332 17.735H39.16L35.2 60.58l-.582-4.274h-.355l-.944 4.647-3.022 14.145a9.29 9.29 0 013.264 1.392l-.287 1.574H23l.287-1.574a13.45 13.45 0 013.71-1.43L31.25 55.21a7.443 7.443 0 01-3.09-1.17l.325-1.575H40.18l2.727 13.826.363 3.43 1.745-3.506 9.066-13.75h11.09l-.287 1.574a10.404 10.404 0 01-3.271 1.171l-4.329 20.192a7.315 7.315 0 012.735 1.095l-.265 1.574z" fill="#231F20"/><path d="M73.225 59.348c5.084 0 8.31 2.486 8.31 7.498 0 6.328-4.284 11.666-12.088 11.666-4.752 0-8.393-2.456-8.393-7.787 0-5.331 3.883-11.377 12.17-11.377zM67.52 72.276c0 2.64 1.05 3.917 2.757 3.917 2.758 0 4.835-4.723 4.835-10.35 0-2.853-.951-4.092-2.478-4.092-3.807-.023-5.114 6.046-5.114 10.502v.023zM98.79 73.645a11.275 11.275 0 01-3.875 3.5 11.192 11.192 0 01-5.024 1.367c-4.36 0-7.23-2.525-7.23-6.844 0-6.693 4.472-12.32 11.876-12.32 2.508 0 4.684.7 5.341 1.315.182 1.134-1.193 3.803-2.833 4.563l-2.432-3.468c-2.546 0-5.523 3.4-5.523 8.921 0 2.959 1.42 4.312 3.634 4.312 2.07 0 3.959-1.391 4.978-2.342l1.088.996zM110.312 69.88l-1.27-.364-1.631 8.555h-6.362l2.977-15.392-2.644-.586v-1.43a30.661 30.661 0 018.794-1.315l.831.403-1.564 7.787h1.345a19.092 19.092 0 004.291-4.639 12.414 12.414 0 00-.113-3.11 15.657 15.657 0 014.177-.48 11.267 11.267 0 013.778.48c-1.345 3.179-5.923 6.327-7.812 7.605a40.418 40.418 0 005.288 7.863h1.995l.038 1.43a12.032 12.032 0 01-5.818 1.757c-1.307 0-2.326-.48-3.339-2.053a34.424 34.424 0 01-2.961-6.51z" fill="#231F20"/><path d="M136.247 67.941c3.672.183 4.873 2.122 4.873 3.688 0 3.149-3.853 6.845-10.796 6.845-4.895 0-7.985-2.783-7.985-6.951a12.148 12.148 0 011.182-5.375 12.082 12.082 0 013.426-4.291c2.108-1.605 4.579-2.487 9.013-2.487 3.196 0 5.734 1.24 5.734 3.803 0 2.023-2.289 3.931-5.447 4.768zm-4.215 1.521c-.756.114-2.101.182-2.901.22-.204.91-.291 1.844-.257 2.776 0 2.282.801 3.734 2.47 3.734 1.511 0 3.234-1.68 3.234-3.916 0-2.053-.801-2.578-2.546-2.814zm-2.72-1.68c3.634.144 6.135-2.084 6.135-4.457 0-.844-.325-1.575-1.232-1.575-1.889-.022-3.74 1.628-4.903 6.008v.023zM155.354 72.991c-1.383 2.844-4.065 5.522-7.774 5.522-2.833 0-4.79-1.94-4.79-5.895 0-7.817 4.722-13.232 11.944-13.232a8.876 8.876 0 013.498.844 18.374 18.374 0 015.772-.76l-2.977 15.795h2.766v1.43a13.24 13.24 0 01-6.097 1.757c-1.964 0-2.803-1.065-2.803-1.978.053-1.188.251-2.366.589-3.506l-.128.023zm.468-2.966l1.353-7.787a3.624 3.624 0 00-1.859-.51c-3.921 0-6.097 5.263-6.097 10.312 0 2.373.506 3.18 1.632 3.18 1.813 0 3.883-2.632 4.971-5.195z" fill="#231F20"/><path fill-rule="evenodd" clip-rule="evenodd" d="M170.924 45.887H212v38.922c0 4.198-2.674 7.157-7.849 7.157h-4.836a10.412 10.412 0 00-4.237.694 10.455 10.455 0 00-3.604 2.348 10.505 10.505 0 00-3.61-2.346 10.444 10.444 0 00-4.24-.696h-4.828c-5.182 0-7.872-2.959-7.872-7.157V45.887z" fill="#A80230"/><path d="M180.625 66.063h-1.088a25.875 25.875 0 01-.824-4.563 12.185 12.185 0 016.966-2.114c4.533 0 5.93 2.198 5.93 4.365 0 4.654-6.225 7.978-10.289 10.168l-1.813.89v.106l1.866-.16h5.054l2.07-3.011h1.095a43.82 43.82 0 01-.695 6.692h-13.908l.43-2.167c4.224-2.89 11.801-7.765 11.801-12.45 0-1.308-.876-2.281-2.735-2.281a7.45 7.45 0 00-1.836.213l-2.024 4.312zM205.201 78.459h-9.58l.272-1.339a19.007 19.007 0 012.818-.639l.612-2.623h-8.605l.295-1.56 14.15-12.928h1.858l-2.636 12.503h3.566l-.401 1.954h-3.588l-.582 2.624a9.662 9.662 0 012.1.639l-.279 1.369zm-4.39-11.59l.756-1.848h-.083l-1.572 1.848-4.918 4.335-1.352.89 2.153-.19h3.913l1.103-5.035z" fill="#fff"/><path d="M32.776 45.027h-1.64v-7.331h-3.218v-1.453h8.061v1.453h-3.203v7.331zM44.365 40.563v.395h-5.96c0 2.373.83 2.86 2.598 2.86a9.49 9.49 0 002.486-.418l.294 1.369c-.964.293-1.962.456-2.969.486-2.576 0-4.147-1.072-4.147-4.677 0-3.483 1.428-4.563 3.996-4.563 2.569 0 3.702.882 3.702 4.548zm-5.938-.928h4.253c-.09-1.87-.574-2.281-1.979-2.281-1.587.015-2.138.532-2.274 2.281zM48.687 37.696c-.167 3.536-.983 7.605-3.423 7.605l-.257-1.696c1.171 0 2.033-2.86 2.169-7.362h5.719v8.784H51.27v-7.331h-2.584zM62.399 40.563v.395h-5.961c0 2.373.83 2.86 2.599 2.86a9.436 9.436 0 002.493-.403l.294 1.369c-.961.293-1.957.457-2.961.487-2.622 0-4.133-1.073-4.133-4.708 0-3.483 1.428-4.563 3.997-4.563s3.672.897 3.672 4.563zm-5.938-.928h4.245c-.083-1.87-.566-2.281-1.979-2.281-1.579.015-2.13.532-2.266 2.281zM69.651 45.027c-1.707-3.293-2.893-3.97-4.034-4.19v4.19H64v-8.784h1.617v4.229c.756-.693 2.138-2.282 3.777-4.229h1.957a30.718 30.718 0 01-3.596 4c.922.365 1.753.837 3.838 4.784h-1.942zM79.45 44.578c-1.208.456-2.488.69-3.778.693-2.636 0-3.61-.654-3.61-2.944.044-2.524 1.48-2.897 3.474-2.897.783.003 1.563.09 2.327.258 0-1.832-.46-2.235-2.372-2.235a7.435 7.435 0 00-2.584.403l-.347-1.422c1.04-.28 2.111-.426 3.188-.434 2.569 0 3.702.76 3.702 3.415v5.163zm-1.587-3.673a9.01 9.01 0 00-2.032-.19c-1.51 0-1.98.152-1.98 1.521 0 1.37.394 1.704 1.965 1.704.696 0 1.387-.112 2.047-.335v-2.7zM83.122 41.027v4h-1.64v-8.784h1.64v3.377h4.094v-3.377h1.64v8.784h-1.64v-4h-4.094zM97.914 44.578c-1.208.456-2.487.69-3.777.693-2.637 0-3.612-.654-3.612-2.944.038-2.524 1.481-2.897 3.49-2.897.783.003 1.563.09 2.328.258 0-1.832-.461-2.235-2.38-2.235a7.419 7.419 0 00-2.576.403l-.393-1.422A12.668 12.668 0 0194.212 36c2.561 0 3.702.76 3.702 3.415v5.163zm-1.587-3.673a9.008 9.008 0 00-2.032-.19c-1.51 0-1.98.152-1.98 1.521 0 1.37.394 1.704 1.965 1.704.696 0 1.388-.113 2.047-.335v-2.7zM102.681 37.696c-.166 3.536-.974 7.605-3.422 7.605l-.257-1.696c1.171 0 2.025-2.86 2.183-7.362h5.719v8.784h-1.639v-7.331h-2.584z" fill="#231F20"/></g><defs><clipPath id="clip0"><path fill="#fff" transform="translate(23 36)" d="M0 0h189v59H0z"/></clipPath></defs></svg>
